X:1
T:11 Etudes in the Form of Old Dances, Op. 19
T:Menuet
T:11 Etudes in the Form of Old Dances, Op. 19
T:9. Menuet in E  major
T:Viktor Kosenko
C:Viktor Kosenko
%%score { ( 1 4 ) | ( 2 5 ) | 3 }
L:1/8
Q:1/4=110
M:3/4
K:Eb
V:1 treble nm="Piano" snm="Pno."
V:4 treble 
V:2 bass 
V:5 bass 
V:3 bass 
V:1
"^Allegretto"!p! z (G/A/ B)!<(!(B/c/ d)(e/f/!<)! | g2 f2 e2) |{def} (e2 d2 c2 | B3 G B2) | %4
 ([ce]2 [df][ce][Bd][Ac] | [GB]3 [EG] [GB]2) |!mf! ([Bd]3 [Ac] [GB][FA] |!>(! [EG]4 [DF]2)!>)! | %8
!p! z (G/A/!<(! B)(B/c/ d)(e/f/!<)! | g2 f2 e2) |{def} (e2 d2 c2 | B3 G B2) |!p! (B2- B>_d =A2) | %13
 (!courtesy!_A2- A>_c G2) |"_dim." .F2 .F2 (E/D/C/D/) | ([G,E]2 [ee']) z/!<(! B/ B>B!<)! | %16
!mf! ([Ff]2 [Ee]2 [Dd]2) | ([FAf]3 [E_Ge] [DFd]2) | ([fa]2 [e_g]2 [df]2) | ([Afa]3 [_G_g] [Fdf]2) | %20
 z (B/_c/ _d)(d/e/ f)(_g/a/ | b4) e2- | e(=d/e/ f)(e/f/ !courtesy!=g)(f/g/ | a4) _d2- | %24
 d(!courtesy!=c/_d/ e)(d/e/ _f)(e/=e/ |!<(! !courtesy!=f4 B2)!<)! |!<(! (f'4 b2)!<)! | %27
!8va(! ([f'b'f'']2!8va)! !tenuto![Bb]2 !tenuto![Bb]2) | !tenuto![Bb]6 | %29
!p! z (B,/C/ D)(D/E/ F)F/_G/ | B6 |!mf!!>(! ([ABf]4 [DAd]2)!>)! |!p! ([EGe]4 b2) | g2 f2 e2 | %34
{def} e2 d2 c2 | B2- B [eg] b2 | ([Bgb]2 [Afa][G=eg] [Afa]2) | ([Afa]2 [Geg][Fdf]"_dim." [Geg]2) | %38
 [Fcf]2 [Fcf]2 ([EBe]/d/c/d/) |!p! ([EBe]2 [ee']2) G,2 |!p! C2 D2 E2 | F2!>(! E2 D2!>)! | %42
!<(! CD E2!<)! FG | A2!>(! G2 F2!>)! |!<(! (E[DF][EG][F=A][D=B][Ec])!<)! | %45
 z/ (c/D/E/ F/G/B/A/) z/ (B/C/D/ | E/F/A/G/) (A/=B,/C/_D/ E/=E/G/F/) | %47
 (=B,/C/F/=E/) _EDC!courtesy!=B, |!mf! C2!<(! D2 E2!<)! | F2 E2 D2 |!<(! CD E2 FG!<)! | A2 G2 F2 | %52
!<(! =EFGABc!<)! | z/ (f/=e/f/ e/f/e/f/) (F/c/=B/c/) | %54
 (=B,/[F=B]/A/G/) (B,/[EB]/G/F/) (B,/[DB]/F/E/-) |!p! [Ec]4 C2 |!pp! c2- c>_d' c'2 | %57
 c'2- c'>!8va(!_d'' c''2!8va)! |!<(! ([cc']4 [=A=a]2!<)! |!>(! [cc']6)!>)! | %60
!pp! [Bb]2- [Bb]>_c' b2 | b2- b>!8va(!_c'' b'2!8va)! |!<(! ([Bb]4 [!courtesy!=G!courtesy!=g]2!<)! | %63
!>(! [Bb]6)!>)! |!p! ([Bb]4 [Gg]2 |!<(! [Bb]6)!<)! | ([Aa]4 [Ff]2 | [Aa]6) | ([Aa]4 [Ff]2 | %69
!>(! [Aa]6)!>)! |!p! !trill(!T[Gg]6- | [Gg]6 | %72
"^Cadenza\nvivo"!pp! A/ G/^c/d/ e/ d/^f/g/ a/"_cresc." g/^c'/d'/ e'/ d'/^f'/g'/!8va(! a'/ g'/^c''/d''/ e''/ d''/^f''/g''/ a''/ g''/f''/d''/ e''/ d''/f''/g''/ a''/ g''/f''/d''/ e''/ d''/e''/g''/ a''/ g''/f''/d''/ | %73
 e''/ d''/^f''/g''/ a''/ g''/f''/d''/ e''/ d''/f''/g''/ a''/ g''/f''/d''/ a''/ g''/f''/d''/ a''/ g''/f''/d''/ a''/ g''/f''/d''/ a''/ g''/f''/d''/"_dim." e''/ d''/_d''/g'/ a'/ g'/^f'/d'/!8va)! e'/ d'/_d'/g/ | %74
 a/ g/!courtesy!^f/d/ e/ d/_d/G/!mf! (e/=d/_d/G/ e/=d/_d/G/ e/=d/_d/G/ e/=d/_d/G/ e/=d/_d/G/ e/=d/_d/!>(!G/ e/=d/_d/G/[Q:1/4=96]"^poco rit." =d/_d/c/F/ !courtesy!_d/c/=B/=E/)!>)! | %75
[Q:1/4=110]"^Tempo I"!p! (c2 d2 e2 |!>(! f2 e2 d2)!>)! | [Cc][Dd] e2 [Ff][Gg] | a2 g2 f2 | %79
!<(! ([Ece][Fdf][Geg][=Af=a][=Bg=b][c_ac'])!<)! | [_dac'_d']6 | %81
!<(! ([Fc!courtesy!=df][Geg][Afa][Bgb][cac'][d=bd'])!<)! | [e!courtesy!_bd'e']6 | %83
!<(! ([G_d=eg][Afa][Bgb][cac'][=db=d'][ec'=e'])!<)! |!f! !-(![ff']4 c'2 | c'4 [=E=e]2 | %86
 !-(![Ff]4 c2 |"_dim." c4 [=B,=B]2 | [CEc][K:bass]!<(! (C,D,E,!<)!!>(!F,=B,- | %89
 B,)!>)![K:treble]!<(!(CDE!<)!!>(!F=B- | B)!>)!!<(!(cdef=b!<)! |!>(! !tenuto![ec']6)!>)! | %92
[Q:1/4=96]"^[rit.]"!>(! (!tenuto![_DAc]6!>)! |!pp! x4) z2 | %94
[Q:1/4=110]"^Tempo I"!p! z!<(! (G/A/ B)(B/c/ d)(e/f/!<)! | g2 f2 e2) |{def} (e2 d2 c2 | B3 G B2) | %98
 ([ce]2 [df][ce] [Bd][Ac] | [GB]3 [EG] [GB]2) |!mf! ([Bd]3 [Ac] [GB][FA] |!>(! [EG]4 [DF]2)!>)! | %102
!p! z!<(! (G/A/ B)(B/c/ d)(e/f/!<)! | g2 f2 e2) |{def} (e2 d2 c2 | B3 G B2) |!p! (B2- B>_d =A2) | %107
 (!courtesy!_A2- A>_c G2) |"_dim." .!courtesy!=F2 .F2 (E/D/C/D/) | %109
 ([G,E]2 [ee']) z/!<(! B/ B>B!<)! |!mf! ([Ff]2 [Ee]2 [Dd]2) | ([FAf]3 [E_Ge] [DFd]2) | %112
 ([fa]2 [e_g]2 [df]2) | ([Afa]3 [_Ge_g] [Fdf]2) |!p! z (B/_c/ _d)(d/e/ f)(_g/a/ | b4 e2- | %116
 e)(=d/e/ f)(e/f/ !courtesy!=g)(f/g/ | a4 _d2- | d)(!courtesy!=c/_d/ e)(d/e/ _f)(e/=e/ | %119
!<(! !courtesy!=f4 B2)!<)! |!<(! (f'4 b2)!<)! | %121
!8va(! ([f'b'f'']2!8va)! !tenuto![Bb]2 !tenuto![Bb]2) | !tenuto![Bb]6 | %123
 z!p! (B,/C/ D)(D/E/ F)(F/_G/ | A4 F2) |!mf! ([ABf]4!>(! [DAd]2)!>)! |!p! ([EGe]4 b2) | g2 f2 e2 | %128
{def} e2 d2 c2 | B2- B [eg] b2 | ([Bgb]2 [Afa][G=eg] [Afa]2) | ([Afa]2 [Geg][Fdf] [Geg]2) | %132
"_dim." !tenuto![Fcf]2 !tenuto![Fcf]2 ([EBe]/d/c/d/) | ([EBe]2 [ee']2) B,2 |!p! E2 F2 G2 | %135
!>(! A2 G2 F2!>)! |!<(! (EF [B,F]2 AB)!<)! |!>(! c2 B2 A2!>)! | %138
!<(! ([EG][FA][GB][Ac][Bd][ce])!<)! |!>(! [Acef]6!>)! |!<(! ([DFB][Ac][Bd][ce][df][eg])!<)! | %141
!>(! [Aega]6!>)! |!mf! ([FAd][EGe][FAf][GBg][Aca][Bdb] | [cec'])([FAf][GBg][Aca][Bdb][cec'] | %144
 [dfd'])([GBg][Aca][Bdb][cec'][dfd'] |!f! [ege']2) !tenuto![egbe']2 !tenuto![egbe']2 | %146
 !tenuto![egbe']2 z2 z2 |] %147
V:2
 (E,B,GB,AB,) | (E,B,GB,GB,) | (E,CACAC) | (E,B,GB,GB,) | (E,CACAC) | (E,B,GB,GB,) | %6
 [F,C]A,,-F,-C- [A,,F,C]2 | z (E,F,G,B,A, | [E,,B,,G,])(B,GB,AB,) | (E,B,GB,GB,) | (E,CACAC) | %11
 (E,B,GB,GB,) | (=E,,C,B,C,=A,F,,) | (!courtesy!=D,,B,,A,B,,G,E,,) | .A,2 .A,2 G,/F,/E,/F,/ | %15
 (E,2 [E,,,E,,]) z z2 | [D,B,]2 [E,B,]2 [B,,F,B,]2 | [D,B,]3 [E,B,] [B,,F,B,]2 | %18
 [D,B,F]2 [E,B,E]2 [B,,F,D]2 | [D,B,F]3 [E,B,E] [B,,F,D]2 | x2 B,2 _C2 | x2 _D2 _F2 | x2 E2 _D2 | %23
 x2 _C2 __E2 | x2 _C2 __B,2 | (!courtesy!=D,,B,,A,B,, [E,,_G,]B,,) | ([A,,D,B,]F,FB, [_G,,E,]B,) | %27
 ([B,,,F,,D,]2 !tenuto!B,2 !tenuto!B,2) | !tenuto!B,6 | z2 z[I:staff -1] (B,/C/ D)(D/E/ | %30
 [FA]4 [DF]2) |[I:staff +1] ([A,B,F]4 [B,,F,A,]2) | z (B,GB, AB,) | (E,B,GB,GB,) | (E,CACAC) | %35
 x3 G B2 | (3(A,,F,C (3=B,CF (3cFC) | (3(B,,G,B, (3=A,B,E (3BEB,-) | %38
 ([B,EB]B,,) ([=A,E=A]B,,) ([_A,B,_A]B,,) | ([G,B,G]2 [E,,,E,,]2) z2 | (E,2 F,2 G,2 | %41
 A,2 G,2 F,2) | (E,F, G,2 A,B, | C2 B,2 A,2) | (G,/A,/G,/C,/ G,,/C,/G,,/C,,/ G,,/C,/G,) | %45
 [A,C]4 [G,B,C]2- | [G,B,C]2 (F,,_D,A,D,) | ([^F,,C,]A,) (G,[G,,E,]) (G,,G,,,) | (E,2 F,2 G,2 | %49
 A,2 G,2 F,2) | (E,F, G,2 A,B, | C2 B,2 A,2) | (G,A,B,CD=E) | %53
 z/ (A/G/A/ G/A/G/A/) (A,/!courtesy!_E/D/E/) | z/ (F,/A,/G,/) z/ (E,/G,/F,/) z/ (D,/F,/E,/) | %55
 [C,,G,,E,]4 z2 | (=E,,C,!courtesy!_B,B,=EC | B=EC!courtesy!_B,B,C,) | %58
 (!courtesy!_E,,/C,/_G,/=A,/B,/=B,/C/E/[K:treble]_G/=A/B/=B/ | c=A_GEC=A,) | %60
[K:bass] (D,,B,,_A,A,DB, | ADB,!courtesy!_A,A,B,,) | %62
 (_D,,/B,,/_F,/!courtesy!=G,/A,/=A,/B,/_D/[K:treble]_F/!courtesy!=G/!courtesy!_A/=A/ | %63
 B!courtesy!=G_F_DB,!courtesy!=G,) |[K:bass] (C,,G,,=E,E,CB,) | z (GC=B,_B,=E,) | (C,,F,,D,D,CF,) | %67
 z (FCB,=A,_A,) | (C,,F,,_D,D,A,F, | z F_D__B,A,F,) | (=B,,,G,,!courtesy!=D,F=DA,) | !fermata!G,6 | %72
 x2 x8 x8 x4 | x2 x8 x8 x4 | x4 G,,,-G,,-F,-=B,- F8- [G,,,G,,F,B,F]6 | (C,,,C,,G,,G,CC,) | %76
 (CA,) (CG,) (=B,[G,,F,]) | (E,[C,,G,,]CE,- E,)(C | F[A,C]) (C[C,B,]) (A,[F,,C,]) | %79
 (C,,,C,,G,,G,E,C) |[K:treble] [CFAc]6 | [A,C!courtesy!=DFA]4 [A,CDFA]2 | [CGBd]6 | %83
!<(! ([B,_D=EB]4 [A,CFA][G,CEG])!<)! |!f! [A,CFA][Ac][GB][FA] !-)!c2 | !-(!c4[K:bass] [A,C][G,B,] | %86
 x4 !-)!C2 |"_dim." !-(!C4 [_E,G,][D,F,] | [C,,G,,D,] z z2 (A,,2 | [C,,G,,]2) z2 (A,2 | %90
 [C,G,]2) z2 (A2 | !tenuto![CG]6) | !tenuto![F,C]6 | !fermata![=E,C]4 z2 | (E,B,GB,AB,) | %95
 (E,B,GB,GB,) | (E,CACAC) | (E,B,GB,GB,) | (E,CACAC) | (E,B,GB,GB,) | ([F,C]A,,-F,-C- [A,,F,C]2) | %101
 z (E,F,G,B,A, | ([E,,B,,G,])B,GB,AB,) | (E,B,GB,GB,) | (E,CACAC) | (E,B,GB,GB,) | %106
 (=E,,C,B,C,=A,F,,) | (!courtesy!=D,,B,,A,B,,G,E,,) | .A,2 .A,2 (G,/F,/E,/F,/) | %109
 (E,2 [E,,,E,,]) z z2 | [D,B,]2 [E,B,]2 [B,,F,B,]2 | [D,B,]3 [E,B,] [B,,F,B,]2 | %112
 [D,B,F]2 [E,B,E]2 [B,,F,D]2 | [D,B,F]3 [E,B,E] [B,,F,D]2 | x2 B,2 _C2 | x2 _D2 _F2 | x2 E2 _D2 | %117
 x2 _C2 __E2 | x2 _C2 __B,2 | (!courtesy!=D,,B,,A,B,, [E,,_G,]B,,) | ([A,,D,A,]F,FB, [_G,,E,]B,) | %121
 ([B,,,F,,D,]2 !tenuto!B,2 !tenuto!B,2) | !tenuto!B,6 | z2 z[I:staff -1] (B,/C/ D)(D/E/ | F4 D2) | %125
[I:staff +1] ([A,B,F]4 [B,,F,A,]2) | z (B,GB, AB,) | (E,B,GB,GB,) | (E,CACAC) | x3 G B2 | %130
 (3(A,,F,C (3=B,CF (3cFC) | (3(B,,G,B, (3=A,B,E (3BEB,) | %132
 ([B,EB]B,,) ([=A,E=A]B,,) ([_A,B,_A]B,,) | ([G,B,G]2 [E,,,E,,]2) z2 | G,2 A,2 B,2 | C2 B,2 A,2 | %136
 G, x3 B,2 | E2 D2 C2 | (E,,,E,,B,B,,EG,) | [A,CEF]6 | ([D,F,B,]B,,E,,E,,,E,,B,,) | [A,CEG]6 | %142
 ([F,A,D]B,,E,,E,,,E,,B,, | [F,A,E])(B,,F,A,EB | [A,DFB])(DA,B,,A,D) | %145
 [E,,,E,,](3(B,,/G,/B,/ E)(3(G,/B,/E/ B)[K:treble](3(B,/G/B/ | e2) z2 z2 |] %147
V:3
 z6 | z6 | z6 | z6 | z6 | z6 | z6 | z6 | z6 | z6 | z6 | z6 | z6 | z6 | z6 | z6 | z6 | z6 | z6 | %19
 z6 | z6 | z6 | z6 | z6 | z6 | z6 | z6 | z6 | z6 | z6 | z6 | z6 | z6 | z6 | z6 | z6 | z6 | z6 | %38
 z6 | z6 | z6 | z6 | z6 | z6 | z6 | z6 | z6 | z6 | z6 | z6 | z6 | z6 | z6 | z6 | z6 | z6 | z6 | %57
 z6 | z6 | z6 | z6 | z6 | z6 | z6 | z6 | z6 | z6 | z6 | z6 | z6 | z6 | z6 | z16 z4 z2 | z16 z4 z2 | %74
 z16 z4 z2 | z6 | z6 | z6 | z6 | z6 | z6 | z2 [C,,,C,,]4- | [C,,,C,,]6 | z2 [C,,,C,,]4- | %84
 [C,,,C,,]6- | [C,,,C,,]4 z2 | [C,,,C,,]6- | [C,,,C,,]4 z2 | z6 | z6 | z6 | z6 | z6 | z6 | z6 | %95
 z6 | z6 | z6 | z6 | z6 | z6 | z6 | z6 | z6 | z6 | z6 | z6 | z6 | z6 | z6 | z6 | z6 | z6 | z6 | %114
 z6 | z6 | z6 | z6 | z6 | z6 | z6 | z6 | z6 | z6 | z6 | z6 | z6 | z6 | z6 | z6 | z6 | z6 | z6 | %133
 z6 | z6 | z6 | z6 | z6 | z6 | z6 | z6 | z6 | z6 | z6 | z6 | z6 | z6 |] %147
V:4
 x6 | x6 | x6 | x6 | x6 | x6 | E6 | x6 | x6 | x6 | x6 | x6 | (GC_GCFC) | FB,_FB,EB, | %14
 [CE]2 [CE]2 A,2 | x6 | (A>B) (_G>B) (F>B) | z B2 B B2 | (A>B) (_G>B) (F>B) | z B2 B B2 | x6 | %21
 z (E/F/ !courtesy!=G)(G/A/ B)(_c/_d/) | (_d2 _c2 B2) | A(_D/E/ F)(F/_G/ A)(__B/_c/) | %24
 __B2 A2 _G2 | F(!courtesy!_B,/C/ D)(E/F/ _GA/G/) | f(B/c/ d)(e/f/ _ga/g/) |!8va(! x2!8va)! x4 | %28
 x6 | x6 | x6 | x6 | z (G/A/ B)(B/c/ d)(e/f/ | ge' fb' e!8va(!e'')!8va)! | %34
 (ee' da' c!8va(!e''!8va)! | Be' x2 g!8va(!e'')!8va)! | x6 | x6 | x6 | x6 | %40
 C!<(!{/^F}G D{/B}=B E{/B}c!<)! | F{/^c}d E{/=B}=c D{/_B}=B | x2 E{/=B}c x2 | %43
 A{/=e}f G{/d}_e F{/^c}d | x6 | x6 | x6 | x2 (E/G/D/G,/ C/E/=B,/F,/) | %48
 C/G/^F/G/ D/=B/_B/=B/ E/c/B/c/ | F/d/^c/d/ E/=c/=B/c/ D/B/_B/=B/ | C/G/D/=B/ E/c/B/c/ F/d/G/e/ | %51
 A/f/=e/f/ G/_e/d/e/ F/d/^c/d/ | (=E/c/F/d/ G/=e/A/f/ B/g/c/a/) | A4 F2 | =B,2 B,2 B,2 | C4 x2 | %56
 c/C/G/B/(5:4:5=B/c/_d/c/_d'/ c'/a/g/c/ | %57
 (c'/c/g/b/(5:4:5=b/c'/_d'/c'/!8va(!_d''/ c''/a'/g'/c'/)!8va)! | T_g6 | T_g6 | %60
 (B/B,/F/A/(5:4:5A/B/_c/B/_c'/ b/_g/f/B/) | %61
 (b/B/f/a/(5:4:5=a/b/_c'/b/!8va(!_c''/ b'/_g'/f'/b'/)!8va)! | Tf6 | Tf6 | Tc6 | Tc6 | Tc6 | Tc6 | %68
 T_d6 | T_d6 | T!courtesy!=d6- | !trill)!!fermata!d6 | x8!8va(! x14 | x20!8va)! x2 | x22 | %75
 c/!<(!C/!courtesy!_E/G/ d/D/G/=B/ e/E/G/c/!<)! | f/F/A/c/ e/E/G/c/ d/D/G/=B/ | %77
 C/G/D/G/ e/E/G/c/ F/c/G/c/ | a/A/c/f/ g/G/B/c/ f/F/A/c/ | x6 | z ([fa][_df][Ad][FA][Ad]) | x6 | %82
 z ([gb][eg][Be][GB][Be]) | x6 | ([ac'][ac'][gb][fa] [df][=eg]) | ([gb][fa][cf][Ac] [Ac][GB]) | %86
 (A[Ac][GB][FA] [DF][=EG]) | ([GB][FA][=EG][FA] [_EG][DF]) | x[K:bass] x3 (F,2 | %89
 E,)[K:treble] x3 (F2 | E2) z2 f2 | x6 | x6 | x6 | x6 | x6 | x6 | x6 | x6 | x6 | E6 | x6 | x6 | %103
 x6 | x6 | x6 | (GC_GCFC) | (FB,_FB,EB,) | [CE]2 [CE]2 A,2 | x6 | (A>B) (_G>B) (F>B) | z B2 B B2 | %112
 (A>B) (_G>B) (F>B) | z B2 B B2 | x6 | z (E/F/ !courtesy!=G)(G/A/ B)(_c/_d/) | (_d2 _c2 B2) | %117
 A(_D/E/ F)(F/_G/ A)(__B/_c/) | (__B2 A2 _G2) | F(!courtesy!_B,/C/ D)(E/F/ _GA/G/) | %120
 f(B/c/ d)(e/f/ _ga/g/) |!8va(! x2!8va)! x4 | x6 | x6 | B6 | x6 | z (G/A/ B)(B/c/ d)(e/f/ | %127
 ge' fe' e!8va(!e'')!8va)! | (ee' da' c!8va(!e''!8va)! | Be' x2 g!8va(!e'')!8va)! | x6 | x6 | x6 | %133
 x6 | (3E!<(!BB, (3FBB, (3GBB,!<)! | (3ABB, (3GBB, (3FBB, | E/B/F/B/ (3B,BB, F/e/G/e/ | %137
 (3AeE (3GeE (3FeE | B,6 | z ([ce][Ac][GB][FA][EG]) | x6 | z ([eg][ce][Bd][Ac][GB]) | x6 | x6 | %144
 x6 | x6 | x6 |] %147
V:5
 x6 | x6 | x6 | x6 | x6 | x6 | x6 | B,,,B,,- B,,4 | G, x5 | x6 | x6 | x6 | x6 | x6 | x4 B,,2 | x6 | %16
 x6 | x6 | x6 | x6 | (_G,,_D,B,D,_CD,) | (!courtesy!=G,,E,_DE,_FE,) | (A,,E,EE,_DE,) | %23
 (F,,_D,_CD,__ED,) | (_G,,_D,_CD,__B,D,) | x6 | x6 | x6 | x6 | x6 | x6 | x6 | [E,,B,,G,]4 z2 | x6 | %34
 x6 | (E,B,GB,GB,) | x6 | x6 | x6 | x6 | E,G,, F,C,, G,G,, | A,[C,,F,,] G,G,, F,A,, | %42
 x2 G,[C,,G,,] x2 | C[C,,F,,] B,[C,,G,,] A,[C,,A,,] | x6 | z F, F,2 z E, | E,2 F,,2 x2 | x6 | %48
 E,[C,,G,,] F,[C,,G,,] G,[C,,G,,] | A,[C,,F,,] G,[C,,G,,] F,[C,,A,,] | x2 G,[C,,G,,] x2 | %51
 C[C,,F,,] B,[C,,G,,] A,[C,,A,,] | C,6 | [F,C]4 A,2 | G,,6 | x6 | x6 | x6 | x4[K:treble] x2 | x6 | %60
[K:bass] x6 | x6 | x4[K:treble] x2 | x6 |[K:bass] x6 | x6 | x6 | x6 | x6 | x6 | x6 | x6 | x22 | %73
 x22 | x22 | x6 | x6 | x6 | x6 | x6 |[K:treble] z ([FA][_DF][A,D][F,A,][A,D]) | x6 | %82
 z ([GB][EG][B,E][G,B,][B,E]) | x6 | x4 [DF][=EG] | ([GB][FA][CF][A,C][K:bass] C,2) | %86
 z ([A,C][G,B,][F,A,] [D,F,][=E,G,]) | [G,B,][F,A,][=E,G,][F,A,] G,,2 | x6 | x6 | x6 | x6 | x6 | %93
 !fermata![C,,G,,]4 x2 | x6 | x6 | x6 | x6 | x6 | x6 | x6 | B,,,B,,- B,,4 | G, x5 | x6 | x6 | x6 | %106
 x6 | x6 | x4 B,,2 | x6 | x6 | x6 | x6 | x6 | (_G,,_D,B,D,_CD,) | (!courtesy!=G,,E,_DE,_FE,) | %116
 (A,,E,EE,_DE,) | (F,,_D,_CD,__ED,) | (_G,,_D,_CD,__B,D,) | x6 | x6 | x6 | x6 | x6 | x6 | x6 | %126
 [E,,B,,G,]4 z2 | x6 | x6 | (E,B,GB,GB,) | x6 | x6 | x6 | x6 | G,B,, A,E,, B,B,, | %135
 CE,, B,B,, A,B,, | G,B,,E,,B,,B,E, | EA, DE, CB,, | x6 | z ([CE][A,C][G,B,][F,A,][E,G,]) | x6 | %141
 z ([EG][CE][B,D][A,C][G,B,]) | x6 | x6 | x6 | x5[K:treble] x | x6 |] %147

